img/socials/instagram.svg

<svg width="20" height="20" viewBox="0 0 20 20" fill="none" xmlns="http://www.w3.org/2000/svg">
<path fill-rule="evenodd" clip-rule="evenodd" d="M10.0009 0.93335C7.53848 0.93335 7.22946 0.944116 6.26234 0.988128C5.29711 1.03233 4.63826 1.18514 4.06176 1.40935C3.46543 1.64093 2.95958 1.95072 2.45562 2.45487C1.95128 2.95883 1.6415 3.46468 1.40917 4.06082C1.18439 4.6375 1.03138 5.29654 0.987939 6.26139C0.944683 7.22852 0.93335 7.53773 0.93335 10.0001C0.93335 12.4625 0.944305 12.7706 0.988128 13.7377C1.03252 14.7029 1.18533 15.3618 1.40935 15.9383C1.64112 16.5346 1.9509 17.0405 2.45505 17.5444C2.95883 18.0488 3.46468 18.3593 4.06063 18.5909C4.6375 18.8151 5.29654 18.9679 6.26158 19.0121C7.2287 19.0561 7.53754 19.0669 9.99973 19.0669C12.4623 19.0669 12.7704 19.0561 13.7375 19.0121C14.7027 18.9679 15.3623 18.8151 15.9392 18.5909C16.5354 18.3593 17.0405 18.0488 17.5442 17.5444C18.0486 17.0405 18.3583 16.5346 18.5907 15.9385C18.8136 15.3618 18.9666 14.7027 19.0119 13.7379C19.0554 12.7708 19.0667 12.4625 19.0667 10.0001C19.0667 7.53773 19.0554 7.2287 19.0119 6.26158C18.9666 5.29635 18.8136 4.6375 18.5907 4.061C18.3583 3.46468 18.0486 2.95883 17.5442 2.45487C17.0399 1.95053 16.5355 1.64075 15.9387 1.40935C15.3606 1.18514 14.7014 1.03233 13.7362 0.988128C12.7691 0.944116 12.4612 0.93335 9.99803 0.93335H10.0009ZM9.18746 2.56723C9.42887 2.56685 9.69822 2.56723 10.0008 2.56723C12.4217 2.56723 12.7086 2.57592 13.6646 2.61936C14.5486 2.65979 15.0283 2.8075 15.3479 2.9316C15.7711 3.09594 16.0727 3.29238 16.3899 3.60972C16.7072 3.92706 16.9037 4.22928 17.0684 4.6524C17.1925 4.97162 17.3404 5.45141 17.3806 6.33541C17.424 7.2912 17.4335 7.57832 17.4335 9.99801C17.4335 12.4177 17.424 12.7048 17.3806 13.6606C17.3402 14.5446 17.1925 15.0244 17.0684 15.3436C16.904 15.7667 16.7072 16.068 16.3899 16.3852C16.0725 16.7025 15.7713 16.8989 15.3479 17.0633C15.0287 17.188 14.5486 17.3353 13.6646 17.3757C12.7088 17.4192 12.4217 17.4286 10.0008 17.4286C7.57981 17.4286 7.29289 17.4192 6.3371 17.3757C5.45309 17.3349 4.97331 17.1872 4.65352 17.0631C4.2304 16.8988 3.92818 16.7023 3.61084 16.385C3.2935 16.0676 3.09706 15.7662 2.93234 15.3429C2.80824 15.0236 2.66034 14.5439 2.62011 13.6598C2.57666 12.7041 2.56797 12.4169 2.56797 9.99574C2.56797 7.57454 2.57666 7.28894 2.62011 6.33315C2.66053 5.44914 2.80824 4.96936 2.93234 4.64975C3.09668 4.22664 3.2935 3.92441 3.61084 3.60707C3.92818 3.28974 4.2304 3.09329 4.65352 2.92858C4.97312 2.80391 5.45309 2.65658 6.3371 2.61596C7.17351 2.57819 7.49765 2.56685 9.18746 2.56496V2.56723ZM14.8406 4.07269C14.2399 4.07269 13.7526 4.55947 13.7526 5.16033C13.7526 5.761 14.2399 6.24834 14.8406 6.24834C15.4413 6.24834 15.9286 5.761 15.9286 5.16033C15.9286 4.55965 15.4413 4.07269 14.8406 4.07269ZM10.0009 5.34393C7.42951 5.34393 5.34472 7.42872 5.34472 10.0001C5.34472 12.5715 7.42951 14.6553 10.0009 14.6553C12.5723 14.6553 14.6563 12.5715 14.6563 10.0001C14.6563 7.42872 12.5723 5.34393 10.0009 5.34393ZM10.0008 6.97783C11.6699 6.97783 13.0231 8.33086 13.0231 10.0001C13.0231 11.6691 11.6699 13.0223 10.0008 13.0223C8.33162 13.0223 6.97859 11.6691 6.97859 10.0001C6.97859 8.33086 8.33162 6.97783 10.0008 6.97783Z" fill="white"/>
</svg>

<svg width="20" height="20" fill="none" xmlns="http://www.w3.org/2000/svg"><path fill-rule="evenodd" clip-rule="evenodd" d="M10 .933c-2.462 0-2.77.011-3.738.055-.965.044-1.624.197-2.2.421a4.44 4.44 0 0 0-1.606 1.046A4.45 4.45 0 0 0 1.409 4.06c-.225.577-.378 1.236-.421 2.2-.043.968-.055 1.277-.055 3.74 0 2.462.011 2.77.055 3.737.045.965.197 1.624.421 2.2a4.442 4.442 0 0 0 1.046 1.606 4.44 4.44 0 0 0 1.606 1.047c.577.224 1.236.377 2.2.421.968.044 1.277.055 3.739.055 2.462 0 2.77-.01 3.738-.055.965-.044 1.624-.197 2.201-.421a4.435 4.435 0 0 0 1.605-1.047 4.45 4.45 0 0 0 1.047-1.606c.223-.576.376-1.235.42-2.2.044-.967.056-1.275.056-3.738 0-2.462-.012-2.771-.055-3.738-.045-.966-.198-1.624-.421-2.201a4.45 4.45 0 0 0-1.047-1.606 4.432 4.432 0 0 0-1.605-1.046c-.578-.224-1.238-.377-2.203-.42C12.77.943 12.461.932 9.998.932h.003Zm-.813 1.634h.814c2.42 0 2.708.009 3.664.052.884.04 1.363.188 1.683.313.423.164.725.36 1.042.678.317.317.514.62.678 1.042.124.32.272.8.313 1.683.043.956.052 1.243.052 3.663s-.009 2.707-.052 3.663c-.04.884-.189 1.363-.313 1.683a2.805 2.805 0 0 1-.678 1.041 2.805 2.805 0 0 1-1.042.678c-.32.125-.8.272-1.683.313-.956.043-1.243.053-3.664.053-2.421 0-2.708-.01-3.664-.053-.884-.041-1.364-.189-1.683-.313a2.808 2.808 0 0 1-1.043-.678 2.81 2.81 0 0 1-.679-1.042c-.124-.32-.272-.8-.312-1.683-.043-.956-.052-1.243-.052-3.664 0-2.421.009-2.707.052-3.663.04-.884.188-1.364.312-1.683a2.81 2.81 0 0 1 .679-1.043c.317-.317.62-.514 1.043-.678.32-.125.8-.272 1.683-.313.837-.038 1.16-.05 2.85-.051v.002Zm5.654 1.506a1.088 1.088 0 1 0 0 2.175 1.088 1.088 0 0 0 0-2.175ZM10 5.343a4.656 4.656 0 1 0 0 9.314 4.656 4.656 0 0 0 0-9.313Zm0 1.635a3.022 3.022 0 1 1 0 6.044 3.022 3.022 0 0 1 0-6.044Z" fill="#fff"/></svg>
